X:1
T:Molto allegro
T:Molto allegro 
%%score { ( 1 3 ) | 2 }
L:1/8
M:4/4
K:C
V:1 treble nm="Piano" snm="Pno."
V:3 treble 
V:2 bass 
V:1
 [Ec]4 [Ec]2 [Ec]2 | [Fc]4 B/c/B/A/ B/c/d/e/ | f z z2 [Fd]2 [Fd]2 | [Gd]4 c/d/c/B/ c/d/e/f/ | %4
 g z z2 [Ge]2 [Ge]2 | [Ae]4 d/e/d/^c/ d/e/f/g/ | a z z2 [Af]2 [Af]2 | [Bf]4 f'/e'/d'/c'/ b/a/g/f/ | %8
 [ee']4 [fb]4 | [gc']4 [fa]4 | [Bf]4 c4 | d4 e4 | z/ d/e/f/ g/a/b/^c'/ d'/f/g/a/ b/c'/d'/e'/ | %13
!8va(! f'/a/b/^c'/ d'/e'/f'/g'/ a'/g'/f'/e'/ g'/f'/e'/d'/!8va)! |!8va(! [e'g']8-!8va)! | %15
!8va(! [e'g']2 [c'e'g']2 [c'e'g']2 [c'e'g']2!8va)! |!8va(! [c'e'g'] z [e'g'c''] z z4!8va)! | %17
!8va(! [g'c''e''] z z2 z4!8va)! | z8 | z [Gceg] z2 [DFGB] z z2 | [EGc]2 z2 [cegc']2 z2 | z8 | z8 | %23
 z8 | z8 | z8 | z8 | z8 | z8 | z8 | z8 | z8 |] %32
V:2
 z/ C,,/D,,/E,,/ F,,/G,,/A,,/B,,/ C,/D,/E,/F,/ G,/A,/B,/C/ | z/ D,/E,/F,/ G,/A,/B,/C/ D z z2 | %2
 z/ D,,/E,,/F,,/ G,,/A,,/B,,/C,/ D,/E,/F,/G,/ A,/B,/C/D/ | z/ E,/F,/G,/ A,/B,/C/D/ E z z2 | %4
 z/ E,,/F,,/G,,/ A,,/B,,/C,/D,/ E,/F,/G,/A,/ B,/C/D/E/ | z/ F,/G,/A,/ B,/C/D/E/ F z z2 | %6
 z/ F,,/G,,/A,,/ B,,/C,/D,/E,/ F,/G,/A,/B,/ C/D/E/F/ | z/ G,/A,/B,/ C/D/E/F/ G z z2 | %8
 C,/D,/E,/F,/ G,/A,/B,/C/ D,/E,/F,/G,/ A,/B,/C/D/ | E,/F,/G,/A,/ B,/C/D/E/ F,/G,/A,/B,/ C/D/E/F/ | %10
[K:treble] G,/A,/B,/C/ D/E/F/G/ A,/B,/C/D/ E/F/G/A/ | B,/C/D/E/ F/G/A/B/ C/D/E/F/ G/A/B/c/ | %12
 [FA] z z2 z/ D/E/F/ G/A/B/^c/ | d/F/G/A/ B/^c/d/e/ f z z2 | z/ g/f/e/ d/c/B/A/ G/e/d/c/ B/A/G/F/ | %15
 E/c/B/A/ G/F/E/D/ C/G/F/E/ D/C/B,/A,/ |[K:bass] G,/E/D/C/ B,/A,/G,/F,/ E,/C/B,/A,/ G,/F,/E,/D,/ | %17
 C,/G,/F,/E,/ D,/C,/B,,/A,,/ G,,/E,/D,/C,/ B,,/A,,/G,,/F,,/ | %18
 E,,/C,/B,,/A,,/ G,,/F,,/E,,/D,,/ C,,/G,,/F,,/E,,/ D,,/C,,/B,,,/A,,,/ | %19
 G,,,/ z/ z z2 [G,,G,] z z2 | [C,G,C]2 z2 [C,,E,,G,,C,]2 z2 | z8 | z8 | z8 | z8 | z8 | z8 | z8 | %28
 z8 | z8 | z8 | z8 |] %32
V:3
 x8 | x8 | x8 | x8 | x8 | x8 | x8 | x8 | x8 | x8 | x8 | f3 f z4 | x8 |!8va(! x8!8va)! | %14
!8va(! x8!8va)! |!8va(! x8!8va)! |!8va(! x8!8va)! |!8va(! x8!8va)! | x8 | x8 | x8 | x8 | x8 | x8 | %24
 x8 | x8 | x8 | x8 | x8 | x8 | x8 | x8 |] %32

